assets/images/add_user_icon.svg

<?xml version="1.0" standalone="no"?>
<!DOCTYPE svg PUBLIC "-//W3C//DTD SVG 1.0//EN" "http://www.w3.org/TR/2001/REC-SVG-20010904/DTD/svg10.dtd">
<svg xmlns="http://www.w3.org/2000/svg" xmlns:xlink="http://www.w3.org/1999/xlink" version="1.1" width="100" height="100" viewBox="0 0 100 100" xml:space="preserve" xmlns:inkscape ="http://www.inkscape.org/namespaces/inkscape" >
<desc>CopyRight:SVG Design Editor;
configurationStart;Unit=smInches;Dpi=96;Division=4;Grid=True;Zoom=1;CanvasW=100;CanvasH=100;configurationEnd;</desc>


<defs xmlns:inkscape ="http://www.inkscape.org/namespaces/inkscape" >

</defs>




<g inkscape:label = "add_user_icon Default Layer" inkscape:groupmode = "layer" ><g id="group_3">
<path style="fill:Black;stroke:none; stroke-width:1" d="m720,-400l0,-120l-120,0l0,-80l120,0l0,-120l80,0l0,120l120,0l0,80l-120,0l0,120l-80,0zm-360,-80q-66,0 -113,-47q-47,-47 -47,-113q0,-66 47,-113q47,-47 113,-47q66,0 113,47q47,47 47,113q0,66 -47,113q-47,47 -113,47zm-320,320l0,-112q0,-34 17.5,-62.5q17.5,-28.5 46.5,-43.5q62,-31 126,-46.5q64,-15.5 130,-15.5q66,0 130,15.5q64,15.5 126,46.5q29,15 46.5,43.5q17.5,28.5 17.5,62.5l0,112l-640,0zm80,-80l480,0l0,-32q0,-11 -5.5,-20q-5.5,-9 -14.5,-14q-54,-27 -109,-40.5q-55,-13.5 -111,-13.5q-56,0 -111,13.5q-55,13.5 -109,40.5q-9,5 -14.5,14q-5.5,9 -5.5,20l0,32zm240,-320q33,0 56.5,-23.5q23.5,-23.5 23.5,-56.5q0,-33 -23.5,-56.5q-23.5,-23.5 -56.5,-23.5q-33,0 -56.5,23.5q-23.5,23.5 -23.5,56.5q0,33 23.5,56.5q23.5,23.5 56.5,23.5zm0,-80zm0,400z" stroke-linecap = "round" transform = "matrix(0.09,0,0,0.09,5.659996,92.37)" vector-effect="non-scaling-stroke" pen = "1,1" />
</g>
</g>
</svg>

<?xml version="1.0" encoding="UTF-8" standalone="no" ?>
<!DOCTYPE svg PUBLIC "-//W3C//DTD SVG 1.1//EN" "http://www.w3.org/Graphics/SVG/1.1/DTD/svg11.dtd">
<svg xmlns="http://www.w3.org/2000/svg" xmlns:xlink="http://www.w3.org/1999/xlink" version="1.1" width="100" height="100" viewBox="0 0 100 100" xml:space="preserve">
<desc>Created with Fabric.js 5.2.4</desc>
<defs>
</defs>
<g transform="matrix(1 0 0 1 50 50)" id="c9177627-8096-4556-aff7-9e021e8b0f9d"  >
<rect style="stroke: none; stroke-width: 1; stroke-dasharray: none; stroke-linecap: butt; stroke-dashoffset: 0; stroke-linejoin: miter; stroke-miterlimit: 4; fill: rgb(255,255,255); fill-rule: nonzero; opacity: 1; visibility: hidden;" vector-effect="non-scaling-stroke"  x="-50" y="-50" rx="0" ry="0" width="100" height="100" />
</g>
<g transform="matrix(0 0 0 0 0 0)" id="8edbbcf3-b61d-4f34-934c-e21eb7d6cf36"  >
</g>
<g transform="matrix(0.09 0 0 0.09 48.86 49.17)"  >
<path style="stroke: rgb(0,0,0); stroke-width: 0; stroke-dasharray: none; stroke-linecap: butt; stroke-dashoffset: 0; stroke-linejoin: miter; stroke-miterlimit: 4; fill: rgb(255,255,255); fill-rule: nonzero; opacity: 1;" vector-effect="non-scaling-stroke"  transform=" translate(-480, 480)" d="M 720 -400 L 720 -520 L 600 -520 L 600 -600 L 720 -600 L 720 -720 L 800 -720 L 800 -600 L 920 -600 L 920 -520 L 800 -520 L 800 -400 L 720 -400 Z M 360 -480 Q 294 -480 247 -527 Q 200 -574 200 -640 Q 200 -706 247 -753 Q 294 -800 360 -800 Q 426 -800 473 -753 Q 520 -706 520 -640 Q 520 -574 473 -527 Q 426 -480 360 -480 Z M 40 -160 L 40 -272 Q 40 -306 57.5 -334.5 Q 75 -363 104 -378 Q 166 -409 230 -424.5 Q 294 -440 360 -440 Q 426 -440 490 -424.5 Q 554 -409 616 -378 Q 645 -363 662.5 -334.5 Q 680 -306 680 -272 L 680 -160 L 40 -160 Z M 120 -240 L 600 -240 L 600 -272 Q 600 -283 594.5 -292 Q 589 -301 580 -306 Q 526 -333 471 -346.5 Q 416 -360 360 -360 Q 304 -360 249 -346.5 Q 194 -333 140 -306 Q 131 -301 125.5 -292 Q 120 -283 120 -272 L 120 -240 Z M 360 -560 Q 393 -560 416.5 -583.5 Q 440 -607 440 -640 Q 440 -673 416.5 -696.5 Q 393 -720 360 -720 Q 327 -720 303.5 -696.5 Q 280 -673 280 -640 Q 280 -607 303.5 -583.5 Q 327 -560 360 -560 Z M 360 -640 Z M 360 -240 Z" stroke-linecap="round" />
</g>
</svg>
